X:1
T:[ID 4-53r]
T:[ID 4-53r]
T:Bezeichnung standardisiert: Becker Tantz; Becker Tantz
T:Urheber unbekannt Datum in der hier transkribierten schriftlichen Quelle: 1792
C:Urheber unbekannt
C:Datum in der hier transkribierten schriftlichen Quelle: 1792
L:1/8
M:2/4
K:D
V:1 treble 
V:1
 A | dd de/f/ | gg g2 | fe/d/ cd | e/d/c/B/ A/B/c/A/ | dd de/f/ | gg g2"^[Notat bricht ab]" | x4 | %8

